_includes/icons/color-octocat.svg

<svg fill="#666" height="50" viewBox="0 0 48 48" width="50" xmlns="http://www.w3.org/2000/svg"><path d="m40.300781 15.699219c.597657-1.699219 1.199219-5-.402343-8.699219-4.5 0-8.296875 3.199219-8.898438 3.800781-2.199219-.5-4.601562-.699218-7-.699218-2.5 0-4.898437.296875-7.199219.796875-3.101562-3.199219-7.199218-3.898438-8.800781-3.898438 0 0-.898437 1.800781-.898437 5 0 2 .5 3.199219.796875 3.800781-2.398438 2.5-3.898438 5.898438-3.898438 10.300782 0 11.199218 7.101563 15 20 15 12.898438 0 20-3.800782 20-15 0-4.601563-1.398437-8-3.699219-10.402344z" fill="#455a64"/><path d="m24 39c-8.199219 0-15-1.398437-15-9 0-2.898437 1.601563-4.5 2.699219-5.5 2.5-2.199219 6.699219-1.199219 12.300781-1.199219 4.101563 0 7.601563-.699218 10.398438.199219 2.800781.898438 4.601562 3.5 4.601562 6.300781 0 7.898438-4 9.199219-15 9.199219z" fill="#ffccbc"/><path d="m25 34c0 .601563-.398437 1-1 1-.601562 0-1-.398437-1-1 0-.601562.398438-1 1-1 .601563 0 1 .398438 1 1zm1.5 2.5c.199219-.199219.199219-.5 0-.699219-.199219-.199218-.5-.199218-.699219 0-.902343.898438-2.601562.898438-3.5 0-.199218-.199218-.5-.199218-.699218 0-.203125.199219-.203125.5 0 .699219.699218.699219 1.5 1 2.5 1s1.699218-.398437 2.398437-1z" fill="#d84315"/><path d="m19 29.5c0 2.5-1.300781 4.5-3 4.5s-3-2-3-4.5 1.300781-4.5 3-4.5 3 2 3 4.5zm13-4.5c-1.699219 0-3 2-3 4.5s1.300781 4.5 3 4.5 3-2 3-4.5-1.300781-4.5-3-4.5z" fill="#fff"/><path d="m34 30c0 1.699219-.898437 3-2 3-1.101562 0-2-1.300781-2-3 0-.199219 0-.5.101563-.699219.097656.398438.5.699219.898437.699219.601563 0 1-.398437 1-1 0-.601562-.398437-1-1-1-.199219 0-.398437.101563-.601562.199219.402343-.699219.902343-1.199219 1.601562-1.199219 1.101563 0 2 1.300781 2 3zm-18-3c-.699219 0-1.199219.5-1.601562 1.199219.203125-.097656.402343-.199219.601562-.199219.601563 0 1 .398438 1 1 0 .601563-.398437 1-1 1-.398437 0-.800781-.300781-.898437-.699219 0 .199219-.101563.5-.101563.699219 0 1.699219.898438 3 2 3 1.101563 0 2-1.300781 2-3s-.898437-3-2-3z" fill="#6d4c41"/></svg>

<svg xmlns="http://www.w3.org/2000/svg" viewBox="0 0 48 48" width="50" height="50" fill="#666"><path d="M 40.300781 15.699219 C 40.898438 14 41.5 10.699219 39.898438 7 C 35.398438 7 31.601563 10.199219 31 10.800781 C 28.800781 10.300781 26.398438 10.101563 24 10.101563 C 21.5 10.101563 19.101563 10.398438 16.800781 10.898438 C 13.699219 7.699219 9.601563 7 8 7 C 8 7 7.101563 8.800781 7.101563 12 C 7.101563 14 7.601563 15.199219 7.898438 15.800781 C 5.5 18.300781 4 21.699219 4 26.101563 C 4 37.300781 11.101563 41.101563 24 41.101563 C 36.898438 41.101563 44 37.300781 44 26.101563 C 44 21.5 42.601563 18.101563 40.300781 15.699219 Z" fill="#455a64"/><path d="M 24 39 C 15.800781 39 9 37.601563 9 30 C 9 27.101563 10.601563 25.5 11.699219 24.5 C 14.199219 22.300781 18.398438 23.300781 24 23.300781 C 28.101563 23.300781 31.601563 22.601563 34.398438 23.5 C 37.199219 24.398438 39 27 39 29.800781 C 39 37.699219 35 39 24 39 Z" fill="#ffccbc"/><path d="M 25 34 C 25 34.601563 24.601563 35 24 35 C 23.398438 35 23 34.601563 23 34 C 23 33.398438 23.398438 33 24 33 C 24.601563 33 25 33.398438 25 34 Z M 26.5 36.5 C 26.699219 36.300781 26.699219 36 26.5 35.800781 C 26.300781 35.601563 26 35.601563 25.800781 35.800781 C 24.898438 36.699219 23.199219 36.699219 22.300781 35.800781 C 22.101563 35.601563 21.800781 35.601563 21.601563 35.800781 C 21.398438 36 21.398438 36.300781 21.601563 36.5 C 22.300781 37.199219 23.101563 37.5 24.101563 37.5 C 25.101563 37.5 25.800781 37.101563 26.5 36.5 Z" fill="#d84315"/><path d="M 19 29.5 C 19 32 17.699219 34 16 34 C 14.300781 34 13 32 13 29.5 C 13 27 14.300781 25 16 25 C 17.699219 25 19 27 19 29.5 Z M 32 25 C 30.300781 25 29 27 29 29.5 C 29 32 30.300781 34 32 34 C 33.699219 34 35 32 35 29.5 C 35 27 33.699219 25 32 25 Z" fill="#fff"/><path d="M 34 30 C 34 31.699219 33.101563 33 32 33 C 30.898438 33 30 31.699219 30 30 C 30 29.800781 30 29.5 30.101563 29.300781 C 30.199219 29.699219 30.601563 30 31 30 C 31.601563 30 32 29.601563 32 29 C 32 28.398438 31.601563 28 31 28 C 30.800781 28 30.601563 28.101563 30.398438 28.199219 C 30.800781 27.5 31.300781 27 32 27 C 33.101563 27 34 28.300781 34 30 Z M 16 27 C 15.300781 27 14.800781 27.5 14.398438 28.199219 C 14.601563 28.101563 14.800781 28 15 28 C 15.601563 28 16 28.398438 16 29 C 16 29.601563 15.601563 30 15 30 C 14.601563 30 14.199219 29.699219 14.101563 29.300781 C 14.101563 29.5 14 29.800781 14 30 C 14 31.699219 14.898438 33 16 33 C 17.101563 33 18 31.699219 18 30 C 18 28.300781 17.101563 27 16 27 Z" fill="#6d4c41"/></svg>
